src/topics/icons/leankit.svg

<svg height="296" preserveAspectRatio="xMidYMid" viewBox="0 0 256 296" width="256" xmlns="http://www.w3.org/2000/svg"><path d="m63.8078702 257.890142v-20.38307-.88622-90.394483-88.6220418-21.26929l-63.8078702 37.2212576v147.1125892z" fill="#617e39"/><path d="m255.231481 221.555105v-74.442515l-17.724409 10.634645-77.987397 45.197241-77.9873964 44.311021-17.7244084 10.634645 63.8078698 37.221258z" fill="#272826"/><path d="m82.418499 46.9696822 77.101176 45.1972414 77.987397 45.1972414 17.724409 9.748425v-73.5562952l-127.615741-73.5562948-63.8078698 36.3350372z" fill="#93c73f"/></svg>

<?xml version="1.0" encoding="UTF-8" standalone="no"?>
<svg width="256px" height="296px" viewBox="0 0 256 296" version="1.1" xmlns="http://www.w3.org/2000/svg" xmlns:xlink="http://www.w3.org/1999/xlink" preserveAspectRatio="xMidYMid">
    <g>
        <path d="M63.8078702,257.890142 L63.8078702,237.507072 L63.8078702,236.620852 L63.8078702,146.226369 L63.8078702,57.6043272 L63.8078702,36.3350372 L0,73.5562948 L0,220.668884 L63.8078702,257.890142 L63.8078702,257.890142 Z" fill="#617E39"></path>
        <path d="M255.231481,221.555105 L255.231481,147.11259 L237.507072,157.747235 L159.519675,202.944476 L81.5322786,247.255497 L63.8078702,257.890142 L127.61574,295.1114 L255.231481,221.555105 Z" fill="#272826"></path>
        <path d="M82.418499,46.9696822 L159.519675,92.1669236 L237.507072,137.364165 L255.231481,147.11259 L255.231481,73.5562948 L127.61574,0 L63.8078702,36.3350372 L82.418499,46.9696822 Z" fill="#93C73F"></path>
    </g>
</svg>
